SVG_Azure_All/Chaos Studio.svg

<?xml version="1.0" encoding="UTF-8" standalone="no"?>
<!-- Generated by Microsoft Visio, SVG Export Chaos Studio.svg Page-1 -->

<svg
   xmlns:dc="http://purl.org/dc/elements/1.1/"
   xmlns:cc="http://creativecommons.org/ns#"
   xmlns:rdf="http://www.w3.org/1999/02/22-rdf-syntax-ns#"
   xmlns:svg="http://www.w3.org/2000/svg"
   xmlns="http://www.w3.org/2000/svg"
   xmlns:sodipodi="http://sodipodi.sourceforge.net/DTD/sodipodi-0.dtd"
   xmlns:inkscape="http://www.inkscape.org/namespaces/inkscape"
   width="0.78735679in"
   height="0.78740126in"
   viewBox="0 0 56.689597 56.693201"
   xml:space="preserve"
   class="st4"
   version="1.1"
   id="svg67"
   sodipodi:docname="Chaos Studio.svg"
   style="font-size:12px;overflow:visible;color-interpolation-filters:sRGB;fill:none;fill-rule:evenodd;stroke-linecap:square;stroke-miterlimit:3"
   inkscape:version="0.92.5 (2060ec1f9f, 2020-04-08)"><metadata
   id="metadata71"><rdf:RDF><cc:Work
       rdf:about=""><dc:format>image/svg+xml</dc:format><dc:type
         rdf:resource="http://purl.org/dc/dcmitype/StillImage" /></cc:Work></rdf:RDF></metadata><sodipodi:namedview
   pagecolor="#ffffff"
   bordercolor="#666666"
   borderopacity="1"
   objecttolerance="10"
   gridtolerance="10"
   guidetolerance="10"
   inkscape:pageopacity="0"
   inkscape:pageshadow="2"
   inkscape:window-width="640"
   inkscape:window-height="480"
   id="namedview69"
   showgrid="false"
   inkscape:zoom="1.4193119"
   inkscape:cx="37.795128"
   inkscape:cy="37.786193"
   inkscape:window-x="0"
   inkscape:window-y="0"
   inkscape:window-maximized="0"
   inkscape:current-layer="svg67" />
	<style
   type="text/css"
   id="style2">
	<![CDATA[
		.st1 {fill:url(#grad0-6);stroke:none;stroke-linecap:butt;stroke-width:34}
		.st2 {fill:url(#grad0-10);stroke:none;stroke-linecap:butt;stroke-width:34}
		.st3 {fill:url(#grad0-14);stroke:none;stroke-linecap:butt;stroke-width:34}
		.st4 {fill:none;fill-rule:evenodd;font-size:12px;overflow:visible;stroke-linecap:square;stroke-miterlimit:3}
	]]>
	</style>

	<defs
   id="Patterns_And_Gradients">
		<linearGradient
   id="grad0-6"
   x1="0"
   y1="94.902047"
   x2="49.096423"
   y2="94.902047"
   gradientTransform="scale(1.1546666,0.86605086)"
   gradientUnits="userSpaceOnUse">
			<stop
   offset="0"
   stop-color="#e83231"
   stop-opacity="1"
   id="stop4" />
			<stop
   offset="1"
   stop-color="#ce1817"
   stop-opacity="1"
   id="stop6" />
		</linearGradient>
		<linearGradient
   id="grad0-10"
   x1="0"
   y1="94.902047"
   x2="49.096423"
   y2="94.902047"
   gradientTransform="scale(1.1546666,0.86605086)"
   gradientUnits="userSpaceOnUse">
			<stop
   offset="0.04"
   stop-color="#a80000"
   stop-opacity="1"
   id="stop9" />
			<stop
   offset="0.32"
   stop-color="#a30302"
   stop-opacity="1"
   id="stop11" />
			<stop
   offset="0.63"
   stop-color="#960c06"
   stop-opacity="1"
   id="stop13" />
			<stop
   offset="0.71"
   stop-color="#910f08"
   stop-opacity="1"
   id="stop15" />
			<stop
   offset="0.74"
   stop-color="#8b0e07"
   stop-opacity="1"
   id="stop17" />
			<stop
   offset="0.79"
   stop-color="#790a05"
   stop-opacity="1"
   id="stop19" />
			<stop
   offset="0.85"
   stop-color="#5b0502"
   stop-opacity="1"
   id="stop21" />
			<stop
   offset="0.89"
   stop-color="#440000"
   stop-opacity="1"
   id="stop23" />
		</linearGradient>
		<linearGradient
   id="grad0-14"
   x1="0"
   y1="71.368096"
   x2="36.921419"
   y2="71.368096"
   gradientTransform="scale(0.86833065,1.151635)"
   gradientUnits="userSpaceOnUse">
			<stop
   offset="0.35"
   stop-color="#a80000"
   stop-opacity="1"
   id="stop26" />
			<stop
   offset="0.52"
   stop-color="#a20402"
   stop-opacity="1"
   id="stop28" />
			<stop
   offset="0.75"
   stop-color="#910f08"
   stop-opacity="1"
   id="stop30" />
			<stop
   offset="0.8"
   stop-color="#8b0e07"
   stop-opacity="1"
   id="stop32" />
			<stop
   offset="0.87"
   stop-color="#790a05"
   stop-opacity="1"
   id="stop34" />
			<stop
   offset="0.94"
   stop-color="#5b0502"
   stop-opacity="1"
   id="stop36" />
			<stop
   offset="0.99"
   stop-color="#440000"
   stop-opacity="1"
   id="stop38" />
		</linearGradient>
	</defs>
	<g
   id="g65"
   transform="translate(-34.000441,-34.0011)">
		<title
   id="title42">Page-1</title>
		<g
   id="group6771-1"
   transform="translate(34,-34.0157)">
			<title
   id="title44">Chaos Studio</title>
			<g
   id="group6772-2">
				<title
   id="title46">Sheet.6772</title>
				<g
   id="shape6773-3"
   transform="translate(0,-14.1732)">
					<title
   id="title48">Sheet.6773</title>
					<path
   d="M 32.06,110.54 V 92.65 L 0,124.71 V 94.79 a 15.4331,15.4331 0 0 1 4.19,-8.48 13.9528,13.9528 0 0 1 9.26,-4.12 h 29.07 l 14.17,14.17 -14.17,14.18 z"
   class="st1"
   id="path50"
   inkscape:connector-curvature="0"
   style="fill:url(#grad0-6);stroke:none;stroke-width:34;stroke-linecap:butt" />
				</g>
				<g
   id="shape6774-7">
					<title
   id="title53">Sheet.6774</title>
					<path
   d="m 24.63,96.36 v 17.89 L 56.69,82.19 v 29.92 a 15.4331,15.4331 0 0 1 -4.19,8.54 14.1417,14.1417 0 0 1 -9.26,4.06 H 14.17 L 0,110.54 14.17,96.36 Z"
   class="st2"
   id="path55"
   inkscape:connector-curvature="0"
   style="fill:url(#grad0-10);stroke:none;stroke-width:34;stroke-linecap:butt" />
				</g>
				<g
   id="shape6775-11"
   transform="translate(24.6299)">
					<title
   id="title58">Sheet.6775</title>
					<path
   d="M 0,114.25 32.06,82.19 v 29.92 a 15.4331,15.4331 0 0 1 -4.19,8.54 14.1417,14.1417 0 0 1 -9.26,4.06 z"
   class="st3"
   id="path60"
   inkscape:connector-curvature="0"
   style="fill:url(#grad0-14);stroke:none;stroke-width:34;stroke-linecap:butt" />
				</g>
			</g>
		</g>
	</g>
</svg>

<?xml version="1.0" encoding="UTF-8" standalone="no"?>
<!DOCTYPE svg PUBLIC "-//W3C//DTD SVG 1.1//EN" "http://www.w3.org/Graphics/SVG/1.1/DTD/svg11.dtd">
<!-- Generated by Microsoft Visio, SVG Export Chaos Studio.svg Page-1 -->
<svg xmlns="http://www.w3.org/2000/svg" xmlns:xlink="http://www.w3.org/1999/xlink" xmlns:ev="http://www.w3.org/2001/xml-events"
		width="1.73185in" height="1.73206in" viewBox="0 0 124.693 124.709" xml:space="preserve" color-interpolation-filters="sRGB"
		class="st4">
	<style type="text/css">
	<![CDATA[
		.st1 {fill:url(#grad0-6);stroke:none;stroke-linecap:butt;stroke-width:34}
		.st2 {fill:url(#grad0-10);stroke:none;stroke-linecap:butt;stroke-width:34}
		.st3 {fill:url(#grad0-14);stroke:none;stroke-linecap:butt;stroke-width:34}
		.st4 {fill:none;fill-rule:evenodd;font-size:12px;overflow:visible;stroke-linecap:square;stroke-miterlimit:3}
	]]>
	</style>

	<defs id="Patterns_And_Gradients">
		<linearGradient id="grad0-6" x1="0" y1="0" x2="1" y2="0" gradientTransform="rotate(90 0.5 0.5)">
			<stop offset="0" stop-color="#e83231" stop-opacity="1"/>
			<stop offset="1" stop-color="#ce1817" stop-opacity="1"/>
		</linearGradient>
		<linearGradient id="grad0-10" x1="0" y1="0" x2="1" y2="0" gradientTransform="rotate(-126.38081954552 0.5 0.5)">
			<stop offset="0.04" stop-color="#a80000" stop-opacity="1"/>
			<stop offset="0.32" stop-color="#a30302" stop-opacity="1"/>
			<stop offset="0.63" stop-color="#960c06" stop-opacity="1"/>
			<stop offset="0.71" stop-color="#910f08" stop-opacity="1"/>
			<stop offset="0.74" stop-color="#8b0e07" stop-opacity="1"/>
			<stop offset="0.79" stop-color="#790a05" stop-opacity="1"/>
			<stop offset="0.85" stop-color="#5b0502" stop-opacity="1"/>
			<stop offset="0.89" stop-color="#440000" stop-opacity="1"/>
		</linearGradient>
		<linearGradient id="grad0-14" x1="0" y1="0" x2="1" y2="0" gradientTransform="rotate(-131.3974698211 0.5 0.5)">
			<stop offset="0.35" stop-color="#a80000" stop-opacity="1"/>
			<stop offset="0.52" stop-color="#a20402" stop-opacity="1"/>
			<stop offset="0.75" stop-color="#910f08" stop-opacity="1"/>
			<stop offset="0.8" stop-color="#8b0e07" stop-opacity="1"/>
			<stop offset="0.87" stop-color="#790a05" stop-opacity="1"/>
			<stop offset="0.94" stop-color="#5b0502" stop-opacity="1"/>
			<stop offset="0.99" stop-color="#440000" stop-opacity="1"/>
		</linearGradient>
	</defs>
	<g>
		<title>Page-1</title>
		<g id="group6603-1" transform="translate(34,-34.0157)">
			<title>Chaos Studio</title>
			<g id="group6604-2">
				<title>Sheet.6604</title>
				<g id="shape6605-3" transform="translate(0,-14.1732)">
					<title>Sheet.6605</title>
					<path d="M32.06 110.54 L32.06 92.65 L0 124.71 L0 94.79 A15.4331 15.4331 0 0 1 4.19 86.31 A13.9528 13.9528 0 0
								 1 13.45 82.19 L42.52 82.19 L56.69 96.36 L42.52 110.54 L32.06 110.54 Z" class="st1"/>
				</g>
				<g id="shape6606-7">
					<title>Sheet.6606</title>
					<path d="M24.63 96.36 L24.63 114.25 L56.69 82.19 L56.69 112.11 A15.4331 15.4331 0 0 1 52.5 120.65 A14.1417 14.1417
								 0 0 1 43.24 124.71 L14.17 124.71 L0 110.54 L14.17 96.36 L24.63 96.36 Z" class="st2"/>
				</g>
				<g id="shape6607-11" transform="translate(24.6299,1.42109E-14)">
					<title>Sheet.6607</title>
					<path d="M0 114.25 L32.06 82.19 L32.06 112.11 A15.4331 15.4331 0 0 1 27.87 120.65 A14.1417 14.1417 0 0 1 18.61
								 124.71 L0 114.25 Z" class="st3"/>
				</g>
			</g>
		</g>
	</g>
</svg>
